svg/icon/hush.svg

<svg xmlns="http://www.w3.org/2000/svg" xmlns:xlink="http://www.w3.org/1999/xlink" width="32" height="32" viewBox="0 0 32 32">
  <defs>
    <linearGradient id="hush-c" x1="50%" x2="50%" y1="0%" y2="100%">
      <stop offset="0%" stop-color="#FFF" stop-opacity=".5"/>
      <stop offset="100%" stop-opacity=".5"/>
    </linearGradient>
    <circle id="hush-b" cx="16" cy="15" r="15"/>
    <filter id="hush-a" width="111.7%" height="111.7%" x="-5.8%" y="-4.2%" filterUnits="objectBoundingBox">
      <feOffset dy=".5" in="SourceAlpha" result="shadowOffsetOuter1"/>
      <feGaussianBlur in="shadowOffsetOuter1" result="shadowBlurOuter1" stdDeviation=".5"/>
      <feComposite in="shadowBlurOuter1" in2="SourceAlpha" operator="out" result="shadowBlurOuter1"/>
      <feColorMatrix in="shadowBlurOuter1" values="0 0 0 0 0   0 0 0 0 0   0 0 0 0 0  0 0 0 0.199473505 0"/>
    </filter>
    <path id="hush-e" d="M15.0069144,17.6570136 C15.0069144,17.1977348 15.008916,16.738422 15.0056134,16.2792114 C15.0047127,16.1514485 15.0419083,16.053489 15.1609007,16.0013076 C15.2702857,15.9532815 15.3861091,15.9869679 15.4820836,16.0989946 C15.768306,16.4331331 16.0523601,16.7692132 16.3372148,17.1045439 C16.4370924,17.2221225 16.5384711,17.3384409 16.6353131,17.4585401 C16.6567631,17.4851076 16.6729089,17.5251975 16.6730757,17.5591222 C16.6754442,18.0439127 16.6760114,18.5287031 16.6742767,19.0134936 C16.6726754,19.4639506 16.3355802,19.8355903 15.902944,19.867778 C15.4678392,19.9002041 15.0842078,19.5875239 15.0148206,19.141563 C15.0062472,19.0865204 15.0073147,19.0296385 15.0072146,18.9735741 C15.0066809,18.5347319 15.0069144,18.0958898 15.0069144,17.6570136 Z M15.0099501,8.64739772 C15.0089493,8.62774451 15.0070479,8.60812537 15.0070479,8.58847216 C15.0069144,7.67761244 15.0058136,6.76671866 15.0075149,5.85585894 C15.0082821,5.43540975 15.2956054,5.08192451 15.6859087,5.01329156 C16.1981067,4.92316611 16.6632014,5.30175432 16.6686723,5.83409395 C16.6782798,6.76525404 16.6734761,7.69655037 16.6745435,8.62777858 C16.6745769,8.63673662 16.673009,8.64572873 16.6702068,8.67614522 C16.4758892,8.34367563 16.2075473,8.17837752 15.8418632,8.17916092 C15.4796151,8.17994432 15.2096386,8.3384643 15.0099501,8.64739772 Z M15.0069144,21.2597496 C15.2109063,21.5700454 15.4832846,21.7281907 15.8483015,21.7270667 C16.2115171,21.7259768 16.4767232,21.5599974 16.6747103,21.2518474 L16.6747103,21.3237162 C16.6747103,22.0713214 16.6755443,22.8188926 16.6741766,23.5664638 C16.6737429,23.7933443 16.6808151,24.021519 16.660566,24.2468667 C16.620268,24.6943263 16.2364365,25.0185872 15.7909236,24.9991724 C15.3651594,24.9805751 15.0106173,24.6101956 15.0085157,24.1667892 C15.0042457,23.2737775 15.0070145,22.3807998 15.0069144,21.4877881 C15.0069144,21.4117639 15.0069144,21.3357738 15.0069144,21.2597496 Z M16.6747103,12.4340972 C16.6747103,12.9877591 16.6747437,13.5413868 16.6747103,14.0950487 C16.674677,14.2528874 16.6245047,14.3392321 16.5052787,14.3872241 C16.3776795,14.438554 16.241874,14.4046633 16.1455325,14.2925345 C15.9033109,14.0106455 15.6625238,13.7274281 15.4211363,13.4447898 C15.2963393,13.298668 15.1701412,13.1537725 15.0478129,13.0055049 C15.0259959,12.9790054 15.0087158,12.9388134 15.0086157,12.9048886 C15.0064474,12.1905269 15.0045125,11.4760971 15.008082,10.7617354 C15.0102837,10.3167963 15.3297319,9.97104291 15.7744775,9.92042824 C16.1691175,9.87550175 16.5613222,10.1699592 16.6528934,10.5836984 C16.6681386,10.652672 16.6735428,10.7251879 16.6737763,10.7961029 C16.6754442,11.342101 16.6747103,11.8880991 16.6747103,12.4340972 Z M18.4064226,9.05745831 C18.4064893,8.31734647 18.4055219,7.57720056 18.4068229,6.83708872 C18.4075568,6.43455562 18.6370018,6.10743362 18.9929117,5.99472571 C19.5335985,5.82350098 20.0726173,6.23216506 20.0759532,6.81988791 C20.079089,7.37368599 20.0766871,7.92751813 20.0766871,8.4813162 C20.0766871,9.41285096 20.0773543,10.3443857 20.0763202,11.2759205 C20.0759199,11.6888762 19.8278271,12.0227764 19.4493997,12.1255044 C18.9561164,12.2593983 18.452792,11.8966825 18.4117601,11.3771498 C18.407757,11.3263648 18.4066895,11.2752052 18.4066561,11.2242158 C18.4063225,10.501952 18.4064226,9.77968811 18.4064226,9.05745831 Z M13.3615359,19.7593958 C13.3617361,20.6141911 13.3626701,21.4690204 13.3613024,22.3238498 C13.3606352,22.7494422 13.078149,23.0924366 12.6685641,23.1711176 C12.1884244,23.2633208 11.7103862,22.872675 11.6957749,22.3739536 C11.6915716,22.2312038 11.6945072,22.0882157 11.6945072,21.9452957 C11.6944739,20.360709 11.6940402,18.7760883 11.6948408,17.1915017 C11.695041,16.7934306 11.9513401,16.4564649 12.3226954,16.3597657 C12.8442673,16.2239304 13.3581333,16.6222399 13.3605351,17.1719507 C13.3643381,18.0344097 13.3615359,18.8969027 13.3615359,19.7593958 Z M13.3617694,10.3127771 C13.3617361,11.4791285 13.3624032,12.6454799 13.3613357,13.8117973 C13.3610022,14.224174 13.0957294,14.5616165 12.7061266,14.6518101 C12.1998999,14.769014 11.700245,14.3712154 11.6956748,13.8413282 C11.6913047,13.336033 11.6945072,12.8306697 11.6944739,12.3253404 C11.6944739,10.4903031 11.6941403,8.65529988 11.6947741,6.82029664 C11.6949075,6.4077496 11.9623153,6.06421018 12.3468475,5.97732053 C12.8647165,5.86032094 13.3586336,6.25672305 13.3607019,6.79842947 C13.3640712,7.6967888 13.3617027,8.59518218 13.3617694,9.49354151 C13.3617694,9.76660868 13.3617694,10.0397099 13.3617694,10.3127771 Z M18.4064226,18.4986954 C18.406456,17.2328518 18.4064226,15.9670422 18.4064893,14.7011985 C18.4064893,14.322406 18.5680148,14.0400742 18.906311,13.8830188 C19.447665,13.6317167 20.0555374,14.0322402 20.0761534,14.645611 C20.0767872,14.6634589 20.0766538,14.681341 20.0766538,14.6991889 C20.0766538,17.2308422 20.0768206,19.7624954 20.076487,22.2941827 C20.0764536,22.7123157 19.8369675,23.0444447 19.4603749,23.1522819 C18.9658573,23.2938394 18.4538595,22.9320093 18.4120937,22.4107735 C18.4077903,22.357468 18.4066895,22.3037538 18.4066561,22.2502439 C18.4063559,20.9997278 18.4064226,19.7492116 18.4064226,18.4986954 Z M23.4997803,14.6328721 C23.4997803,16.6130434 23.5000138,18.5931807 23.4995802,20.5733519 C23.4995134,20.9954361 23.2286029,21.3378515 22.8289924,21.4249114 C22.3367433,21.5321696 21.846996,21.1393439 21.833152,20.6260443 C21.8324514,20.6005326 21.832418,20.5750209 21.832418,20.5495092 C21.832418,16.6019395 21.8323513,12.6543698 21.8324848,8.70680014 C21.8324848,8.32211501 22.0257016,8.01488463 22.3520218,7.87881087 C22.9018824,7.64954616 23.499013,8.06328534 23.49938,8.67709893 C23.5004809,10.6623453 23.4997803,12.6476258 23.4997803,14.6328721 Z M10.1674206,14.6240163 C10.1673873,16.6069465 10.1676875,18.5898767 10.1671538,20.572807 C10.1670203,20.9932902 9.90768548,21.3296768 9.51511378,21.4232424 C9.01429129,21.5426604 8.51403591,21.1487447 8.50045869,20.6242391 C8.50002502,20.6063911 8.50002502,20.5885091 8.50002502,20.5706611 C8.50002502,16.6099439 8.49992494,12.6491926 8.5001251,8.68844125 C8.50015846,8.27919813 8.74474851,7.94686478 9.12050715,7.84267213 C9.63764232,7.69930931 10.1613826,8.09697169 10.165786,8.64463878 C10.1711235,9.30048366 10.1673539,9.95636261 10.1673873,10.6122416 C10.167454,11.9495111 10.1674206,13.2867467 10.1674206,14.6240163 Z"/>
    <filter id="hush-d" width="123.3%" height="117.5%" x="-11.7%" y="-6.2%" filterUnits="objectBoundingBox">
      <feOffset dy=".5" in="SourceAlpha" result="shadowOffsetOuter1"/>
      <feGaussianBlur in="shadowOffsetOuter1" result="shadowBlurOuter1" stdDeviation=".5"/>
      <feColorMatrix in="shadowBlurOuter1" values="0 0 0 0 0   0 0 0 0 0   0 0 0 0 0  0 0 0 0.204257246 0"/>
    </filter>
  </defs>
  <g fill="none" fill-rule="evenodd">
    <use fill="#000" filter="url(#hush-a)" xlink:href="#hush-b"/>
    <use fill="#292929" xlink:href="#hush-b"/>
    <use fill="url(#hush-c)" style="mix-blend-mode:soft-light" xlink:href="#hush-b"/>
    <circle cx="16" cy="15" r="14.5" stroke="#000" stroke-opacity=".097"/>
    <g>
      <use fill="#000" filter="url(#hush-d)" xlink:href="#hush-e"/>
      <use fill="#FFF" xlink:href="#hush-e"/>
    </g>
  </g>
</svg>

<svg height="32" width="32" xmlns="http://www.w3.org/2000/svg" xmlns:xlink="http://www.w3.org/1999/xlink"><defs><linearGradient id="c" x1="50%" x2="50%" y1="0%" y2="100%"><stop offset="0" stop-color="#fff" stop-opacity=".5"/><stop offset="1" stop-opacity=".5"/></linearGradient><circle id="b" cx="16" cy="15" r="15"/><filter id="a" height="111.7%" width="111.7%" x="-5.8%" y="-4.2%"><feOffset dy=".5" in="SourceAlpha" result="shadowOffsetOuter1"/><feGaussianBlur in="shadowOffsetOuter1" result="shadowBlurOuter1" stdDeviation=".5"/><feComposite in="shadowBlurOuter1" in2="SourceAlpha" operator="out" result="shadowBlurOuter1"/><feColorMatrix in="shadowBlurOuter1" values="0 0 0 0 0 0 0 0 0 0 0 0 0 0 0 0 0 0 0.199473505 0"/></filter><path id="e" d="M15.007 17.657c0-.46.002-.919-.001-1.378-.001-.128.036-.226.155-.278.11-.048.225-.014.321.098.286.334.57.67.855 1.006.1.117.201.233.298.354a.175.175 0 0 1 .038.1c.002.485.003.97.001 1.454a.848.848 0 0 1-.771.855.842.842 0 0 1-.888-.726c-.009-.055-.008-.112-.008-.168v-1.317zm.003-9.01c-.001-.02-.003-.039-.003-.059V5.856c.001-.42.289-.774.679-.843a.831.831 0 0 1 .983.821c.01.931.004 1.863.006 2.794l-.005.048c-.194-.332-.462-.498-.828-.497-.362 0-.632.16-.832.468zm-.003 12.613c.204.31.476.468.841.467.364-.001.629-.167.827-.475v2.314c-.001.227.006.456-.014.68a.829.829 0 0 1-.87.753.838.838 0 0 1-.782-.832c-.005-.893-.002-1.786-.002-2.68v-.227zm1.668-8.826v1.661c0 .158-.05.244-.17.292a.309.309 0 0 1-.36-.094l-.724-.848c-.125-.146-.25-.291-.373-.44a.174.174 0 0 1-.04-.1c-.002-.714-.003-1.429 0-2.143a.84.84 0 0 1 .766-.842c.395-.044.787.25.879.664.015.069.02.141.02.212.002.546.002 1.092.002 1.638zm1.731-3.377v-2.22c.002-.402.231-.73.587-.842.54-.171 1.08.237 1.083.825.003.554 0 1.108 0 1.661v2.795c0 .413-.248.747-.627.85-.493.133-.996-.23-1.037-.749a1.965 1.965 0 0 1-.005-.153V9.057zM13.362 19.76v2.565a.845.845 0 0 1-.693.847c-.48.092-.959-.298-.973-.797-.004-.143-.001-.286-.001-.429v-4.753c0-.399.256-.736.628-.832a.834.834 0 0 1 1.038.812c.003.862 0 1.725 0 2.587zm0-9.446v3.499c-.001.412-.266.75-.656.84-.506.117-1.006-.28-1.01-.81-.005-.506-.001-1.011-.002-1.517V6.82c0-.412.268-.756.653-.843a.835.835 0 0 1 1.014.821c.003.899 0 1.797 0 2.696zm5.044 8.186V14.7c0-.379.162-.66.5-.818.542-.251 1.15.15 1.17.763v7.648c0 .418-.239.75-.616.858-.494.142-1.006-.22-1.048-.741a2.013 2.013 0 0 1-.005-.16v-3.752zm5.094-3.866v5.94a.85.85 0 0 1-.671.852c-.492.107-.982-.286-.996-.799v-.076V8.707c0-.385.193-.692.519-.828.55-.23 1.147.184 1.147.798v5.956zm-13.333-.009v5.949c0 .42-.26.757-.652.85-.5.12-1.001-.274-1.015-.799v-.053V8.688c0-.409.245-.741.62-.845a.834.834 0 0 1 1.046.802c.005.655.001 1.311.001 1.967v4.012z"/><filter id="d" height="117.5%" width="123.3%" x="-11.7%" y="-6.2%"><feOffset dy=".5" in="SourceAlpha" result="shadowOffsetOuter1"/><feGaussianBlur in="shadowOffsetOuter1" result="shadowBlurOuter1" stdDeviation=".5"/><feColorMatrix in="shadowBlurOuter1" values="0 0 0 0 0 0 0 0 0 0 0 0 0 0 0 0 0 0 0.204257246 0"/></filter></defs><g fill="none" fill-rule="evenodd"><use fill="#000" filter="url(#a)" xlink:href="#b"/><use fill="#292929" xlink:href="#b"/><use fill="url(#c)" xlink:href="#b"/><circle cx="16" cy="15" r="14.5" stroke="#000" stroke-opacity=".097"/><use fill="#000" filter="url(#d)" xlink:href="#e"/><use fill="#fff" xlink:href="#e"/></g></svg>
